!!!COM: Gabriel Faure/
!!!CNT: Francais
!!!TXO: Francais
!!!OTL: "Au bord de l'eau"
!!!LYR: Prudhomme
!!!OPR: 
!!!OPS: Op. 8
!!!ONM: No. 1
!!!ENC: Emily Thomas
!!!YOR: CD Sheet Music French Art Songs, The Ultimate Collection
!!!YOR: CD Sheet Music, LLC 2003
!!!ODT: 1875/
!!NB: Vocal melody and text encoded.
**kern	**silbe
=1	=1
*clefG2	*
*k[f#c#g#d#]	*
*M6/8	*
*MM[Andante quasi allegretto]	*
2.r	.
=2	=2
8r	.
8r	.
{8g#	{S'ass-
8ee	-eoir
8dd#	|
8cc#	tous
=3	=3
8b	deux
8a	au
8g#	bord
8f##	du
8g#	flot
8f#	qui
=4	=4
8g#	pas-
8b	|
[8f#	-se,
8f#]}	|}
8r	.
8r	.
=5	=5
8r	.
8r	.
{8e	{Le
8e	voir
8g#	|
8d#	pas-
=6	=6
4c#	-ser,
8g#	Tous
8ee	deux
8dd#	|
8cc#	s'il
=7	=7
8b	glisse
8a	un
8g#	nu-
8f##	-age
8g#	en
8f##	l'es-
=8	=8
8g#	-pa-
8b	|
[8f#	-ce,
8f#]}	|}
8r	.
8r	.
=9	=9
8r	.
8r	.
{8e	{Le
8e	voir
8g#	|
8d#	glis-
=10	=10
4c#}	-ser,}
8r	.
{8g#	{A
8b#	l'ho-
8dd#	-ri-
=11	=11
8ff#	-zon
8ee	s'il
8dd#	fume
8cc#	un
8b#	toit
8cc#	de
=12	=12
8dd#	chau-
8b#	|
[8g#	-me
8g#]}	|}
8r	.
8r	.
=13	=13
8r	.
8r	.
{8dd#	{Le
8cc#	voir
8b#	|
8cc#	fu-
=14	=14
4.dd#	-mer,
8ee	Aux
8dd#	a-
8cc#	-len-
=15	=15
8b}	-tours}
{8a	{si
8g#	quel-
8f##	-que
8g#	fleur
8f##	em-
=16	=16
8g#	-bau-
8b	|
[8f#	-me
8f#]}	|}
8r	.
8r	.
=17	=17
8r	.
8r	.
{8e	{S'en
8e	em-
8g#	|
8d#	-bau-
=18	=18
4c#}	-mer.}
{8e	{En-
4e	-tendre
8e	au/
=19	=19
8f#	pied
8e	du
8f#	saule
8g#	ou\
8e	l'eau
8g#	mur-
=20	=20
4.f#	-mu-
[4.cc#	-re
=21	=21
8cc#]}	|}
8r	.
{8cc#	{L'eau
4f#	-mur-
8a	-mu-
=22	=22
4g#	-rer,
8g#	Ne
4g#	pas
8g#	sen-
=23	=23
8a#	-tir
8g#	tant
8a#	que
8b	ce
8g#	re^-
8b	-ve
=24	=24
4.a#	du-
[4.ee	-re
=25	=25
8ee]}	|}
8r	.
{8ee	{Le
4a#	temps
8cc#	du-
=26	=26
4.b#}	-rer,}
{8g#	{Mais
8b#	n'ap-
8dd#	-por-
=27	=27
8ff#	-tant
8ee	de
8dd#	pas-
8cc#	-si-
8b#	-on
8cc#	pro-
=28	=28
8dd#	-fon-
8b#	|
[8g#	-de
8g#]}	|}
8r	.
8r	.
=29	=29
8r	.
8r	.
{8dd#	{Qu'a\
8cc#	sa-
8b#	|
8cc#	-do-
=30	=30
4.dd#	-rer.
8ee	Saus
8dd#	oul
8cc#	sou-
=31	=31
8b}	-ci}
{8a	{des
8g#	que-
8f##	-rel-
8g#	-les
8f##	du
=32	=32
8g#	mon-
8b	|
[8f#	-de
8f#]}	|}
8r	.
8r	.
=33	=33
8r	.
8r	.
{8e	{Les
8e	i-
8g#	|
8d#	-gno-
=34	=34
8c#}	-rer;}
8r	.
{8c#	{Et
4e#	seuls
8g#	tous
=35	=35
8b	deux
8a	de-
8g#	-vant
8f#	tout
8e#	ce
8f#	qui
=36	=36
8g#	las-
8e#	|
[8c#	-se
8c#]}	|}
8r	.
8r	.
=37	=37
4r	.
8r	.
{8f#	{Sans
8e#	se
8f#	las-
=38	=38
4.g#}	-ser,}
{8a	{Sen-
8b	-tir
8cc#	l'a-
=39	=39
8ddn	-mour
8ee	de-
8f#	-vant
8gn	tout
8a	ce
8b	qui
=40	=40
8cc#	pas-
8ddn	|
8ee}	-se}
4r	.
8r	.
=41	=41
8r	.
8r	.
{8g#	{ne
4g#	point
8g#	pas-
=42	=42
[4.g#	-ser,
8g#]}	|}
8r	.
8r	.
=43	=43
2.r	.
=44	=44
8r	.
8r	.
{8c#	{Sen-
4e#	-tir
8g#	l'a-
=45	=45
8b	-mour
8a	de-
8g#	-vant
8f#	tout
8e#	ce
8f#	qui
=46	=46
8g#	pas-
8e#	|
[8c#	-se
8c#]}	|}
8r	.
8r	.
=47	=47
8r	.
8r	.
{8g#	{Ne
8f#	point
8e#	|
8f#	pas-
=48	=48
[2.cc#	-ser!
=49	=49
2.cc#_	|
=50	=50
4.cc#_	|
8cc#]}	|}
8r	.
8r	.
==	==
*-	*-
